dist/svg/dropbox.svg

<!-- Generated by IcoMoon.io -->
<svg version="1.1" xmlns="http://www.w3.org/2000/svg" width="32" height="32" viewBox="0 0 32 32">
<title>dropbox</title>
<path d="M7.179 12.625l8.821 5.446-6.107 5.089-8.75-5.696zM24.786 22.536v1.929l-8.75 5.232v0.018l-0.018-0.018-0.018 0.018v-0.018l-8.732-5.232v-1.929l2.625 1.714 6.107-5.071v-0.036l0.018 0.018 0.018-0.018v0.036l6.125 5.071zM9.893 2.107l6.107 5.089-8.821 5.429-6.036-4.821zM24.821 12.625l6.036 4.839-8.732 5.696-6.125-5.089zM22.125 2.107l8.732 5.696-6.036 4.821-8.821-5.429z"></path>
</svg>

<svg version="1.1" xmlns="http://www.w3.org/2000/svg" viewBox="0 0 32 32"><path d="M7.179 12.625L16 18.071 9.893 23.16l-8.75-5.696zm17.607 9.911v1.929l-8.75 5.232v.018l-.018-.018-.018.018v-.018l-8.732-5.232v-1.929l2.625 1.714L16 19.179v-.036l.018.018.018-.018v.036l6.125 5.071zM9.893 2.107L16 7.196l-8.821 5.429-6.036-4.821zm14.928 10.518l6.036 4.839-8.732 5.696L16 18.071zM22.125 2.107l8.732 5.696-6.036 4.821L16 7.195z"/></svg>
